luts/tone/GRADE.cube
TITLE "Filmic tone shaping (pivot=0.39 contrast=1.09 toe=0.0 shoulder=0.1 black=0.025)"

LUT_1D_SIZE 4096

0.02500000 0.02500000 0.02500000
0.02500000 0.02500000 0.02500000
0.02500000 0.02500000 0.02500000
0.02500000 0.02500000 0.02500000
0.02500000 0.02500000 0.02500000
0.02500000 0.02500000 0.02500000
0.02500000 0.02500000 0.02500000
0.02500000 0.02500000 0.02500000
0.02500000 0.02500000 0.02500000
0.02500000 0.02500000 0.02500000
0.02500000 0.02500000 0.02500000
0.02500000 0.02500000 0.02500000
0.02500000 0.02500000 0.02500000
0.02500000 0.02500000 0.02500000
0.02500000 0.02500000 0.02500000
0.02500000 0.02500000 0.02500000
0.02500000 0.02500000 0.02500000
0.02500000 0.02500000 0.02500000
0.02500000 0.02500000 0.02500000
0.02500000 0.02500000 0.02500000
0.02500000 0.02500000 0.02500000
0.02500000 0.02500000 0.02500000
0.02500000 0.02500000 0.02500000
0.02500000 0.02500000 0.02500000
0.02500000 0.02500000 0.02500000
0.02500000 0.02500000 0.02500000
0.02500000 0.02500000 0.02500000
0.02500000 0.02500000 0.02500000
0.02500000 0.02500000 0.02500000
0.02500000 0.02500000 0.02500000
0.02500000 0.02500000 0.02500000
0.02500000 0.02500000 0.02500000
0.02500000 0.02500000 0.02500000
0.02500000 0.02500000 0.02500000
0.02500000 0.02500000 0.02500000
0.02500000 0.02500000 0.02500000
0.02500000 0.02500000 0.02500000
0.02500000 0.02500000 0.02500000
0.02500000 0.02500000 0.02500000
0.02500000 0.02500000 0.02500000
0.02500000 0.02500000 0.02500000
0.02500000 0.02500000 0.02500000
0.02500000 0.02500000 0.02500000
0.02500000 0.02500000 0.02500000
0.02500000 0.02500000 0.02500000
0.02500000 0.02500000 0.02500000
0.02500000 0.02500000 0.02500000
0.02500000 0.02500000 0.02500000
0.02500000 0.02500000 0.02500000
0.02500000 0.02500000 0.02500000
0.02500000 0.02500000 0.02500000
0.02500000 0.02500000 0.02500000
0.02500000 0.02500000 0.02500000
0.02500000 0.02500000 0.02500000
0.02500000 0.02500000 0.02500000
0.02500000 0.02500000 0.02500000
0.02500000 0.02500000 0.02500000
0.02500000 0.02500000 0.02500000
0.02500000 0.02500000 0.02500000
0.02500000 0.02500000 0.02500000
0.02500000 0.02500000 0.02500000
0.02500000 0.02500000 0.02500000
0.02500000 0.02500000 0.02500000
0.02500000 0.02500000 0.02500000
0.02500000 0.02500000 0.02500000
0.02500000 0.02500000 0.02500000
0.02500000 0.02500000 0.02500000
0.02500000 0.02500000 0.02500000
0.02500000 0.02500000 0.02500000
0.02500000 0.02500000 0.02500000
0.02500000 0.02500000 0.02500000
0.02500000 0.02500000 0.02500000
0.02500000 0.02500000 0.02500000
0.02500000 0.02500000 0.02500000
0.02500000 0.02500000 0.02500000
0.02500000 0.02500000 0.02500000
0.02500000 0.02500000 0.02500000
0.02500000 0.02500000 0.02500000
0.02500000 0.02500000 0.02500000
0.02500000 0.02500000 0.02500000
0.02500000 0.02500000 0.02500000
0.02500000 0.02500000 0.02500000
0.02500000 0.02500000 0.02500000
0.02500000 0.02500000 0.02500000
0.02500000 0.02500000 0.02500000
0.02500000 0.02500000 0.02500000
0.02500000 0.02500000 0.02500000
0.02500000 0.02500000 0.02500000
0.02500000 0.02500000 0.02500000
0.02500000 0.02500000 0.02500000
0.02500000 0.02500000 0.02500000
0.02500000 0.02500000 0.02500000
0.02500000 0.02500000 0.02500000
0.02500000 0.02500000 0.02500000
0.02500000 0.02500000 0.02500000
0.02500000 0.02500000 0.02500000
0.02500000 0.02500000 0.02500000
0.02500000 0.02500000 0.02500000
0.02500000 0.02500000 0.02500000
0.02500000 0.02500000 0.02500000
0.02500000 0.02500000 0.02500000
0.02500000 0.02500000 0.02500000
0.02500000 0.02500000 0.02500000
0.02500000 0.02500000 0.02500000
0.02500000 0.02500000 0.02500000
0.02500000 0.02500000 0.02500000
0.02500000 0.02500000 0.02500000
0.02500000 0.02500000 0.02500000
0.02500000 0.02500000 0.02500000
0.02500000 0.02500000 0.02500000
0.02500000 0.02500000 0.02500000
0.02500000 0.02500000 0.02500000
0.02500000 0.02500000 0.02500000
0.02500000 0.02500000 0.02500000
0.02500000 0.02500000 0.02500000
0.02500000 0.02500000 0.02500000
0.02500000 0.02500000 0.02500000
0.02500000 0.02500000 0.02500000
0.02500000 0.02500000 0.02500000
0.02500000 0.02500000 0.02500000
0.02500000 0.02500000 0.02500000
0.02500000 0.02500000 0.02500000
0.02500000 0.02500000 0.02500000
0.02500000 0.02500000 0.02500000
0.02500000 0.02500000 0.02500000
0.02500000 0.02500000 0.02500000
0.02500000 0.02500000 0.02500000
0.02500000 0.02500000 0.02500000
0.02500000 0.02500000 0.02500000
0.02500000 0.02500000 0.02500000
0.02500000 0.02500000 0.02500000
0.02500000 0.02500000 0.02500000
0.02500000 0.02500000 0.02500000
0.02500000 0.02500000 0.02500000
0.02500000 0.02500000 0.02500000
0.02500000 0.02500000 0.02500000
0.02500000 0.02500000 0.02500000
0.02500000 0.02500000 0.02500000
0.02500000 0.02500000 0.02500000
0.02500000 0.02500000 0.02500000
0.02500000 0.02500000 0.02500000
0.02500000 0.02500000 0.02500000
0.02500000 0.02500000 0.02500000
0.02500000 0.02500000 0.02500000
0.02500000 0.02500000 0.02500000
0.02500000 0.02500000 0.02500000
0.02500000 0.02500000 0.02500000
0.02500000 0.02500000 0.02500000
0.02500000 0.02500000 0.02500000
0.02500000 0.02500000 0.02500000
0.02500000 0.02500000 0.02500000
0.02500000 0.02500000 0.02500000
0.02500000 0.02500000 0.02500000
0.02500000 0.02500000 0.02500000
0.02500000 0.02500000 0.02500000
0.02500000 0.02500000 0.02500000
0.02500000 0.02500000 0.02500000
0.02500000 0.02500000 0.02500000
0.02500000 0.02500000 0.02500000
0.02500000 0.02500000 0.02500000
0.02500000 0.02500000 0.02500000
0.02500000 0.02500000 0.02500000
0.02500000 0.02500000 0.02500000
0.02500000 0.02500000 0.02500000
0.02500000 0.02500000 0.02500000
0.02500000 0.02500000 0.02500000
0.02500000 0.02500000 0.02500000
0.02500000 0.02500000 0.02500000
0.02500000 0.02500000 0.02500000
0.02500000 0.02500000 0.02500000
0.02500000 0.02500000 0.02500000
0.02500000 0.02500000 0.02500000
0.02500000 0.02500000 0.02500000
0.02500000 0.02500000 0.02500000
0.02500000 0.02500000 0.02500000
0.02500000 0.02500000 0.02500000
0.02500000 0.02500000 0.02500000
0.02500000 0.02500000 0.02500000
0.02500000 0.02500000 0.02500000
0.02500000 0.02500000 0.02500000
0.02500000 0.02500000 0.02500000
0.02500000 0.02500000 0.02500000
0.02500000 0.02500000 0.02500000
0.02500000 0.02500000 0.02500000
0.02500000 0.02500000 0.02500000
0.02500000 0.02500000 0.02500000
0.02500000 0.02500000 0.02500000
0.02500000 0.02500000 0.02500000
0.02500000 0.02500000 0.02500000
0.02500000 0.02500000 0.02500000
0.02500000 0.02500000 0.02500000
0.02500000 0.02500000 0.02500000
0.02500000 0.02500000 0.02500000
0.02500000 0.02500000 0.02500000
0.02500000 0.02500000 0.02500000
0.02500000 0.02500000 0.02500000
0.02500000 0.02500000 0.02500000
0.02500000 0.02500000 0.02500000
0.02500000 0.02500000 0.02500000
0.02500000 0.02500000 0.02500000
0.02500000 0.02500000 0.02500000
0.02500000 0.02500000 0.02500000
0.02500000 0.02500000 0.02500000
0.02500000 0.02500000 0.02500000
0.02500000 0.02500000 0.02500000
0.02500000 0.02500000 0.02500000
0.02500000 0.02500000 0.02500000
0.02500000 0.02500000 0.02500000
0.02500000 0.02500000 0.02500000
0.02500000 0.02500000 0.02500000
0.02500000 0.02500000 0.02500000
0.02500000 0.02500000 0.02500000
0.02500000 0.02500000 0.02500000
0.02500000 0.02500000 0.02500000
0.02500000 0.02500000 0.02500000
0.02500000 0.02500000 0.02500000
0.02500000 0.02500000 0.02500000
0.02500000 0.02500000 0.02500000
0.02500000 0.02500000 0.02500000
0.02500000 0.02500000 0.02500000
0.02500000 0.02500000 0.02500000
0.02500000 0.02500000 0.02500000
0.02500000 0.02500000 0.02500000
0.02500000 0.02500000 0.02500000
0.02500000 0.02500000 0.02500000
0.02500000 0.02500000 0.02500000
0.02500000 0.02500000 0.02500000
0.02500000 0.02500000 0.02500000
0.02500000 0.02500000 0.02500000
0.02500000 0.02500000 0.02500000
0.02500000 0.02500000 0.02500000
0.02500000 0.02500000 0.02500000
0.02500000 0.02500000 0.02500000
0.02500000 0.02500000 0.02500000
0.02500000 0.02500000 0.02500000
0.02500000 0.02500000 0.02500000
0.02500000 0.02500000 0.02500000
0.02500000 0.02500000 0.02500000
0.02500000 0.02500000 0.02500000
0.02500000 0.02500000 0.02500000
0.02500000 0.02500000 0.02500000
0.02500000 0.02500000 0.02500000
0.02500000 0.02500000 0.02500000
0.02500000 0.02500000 0.02500000
0.02500000 0.02500000 0.02500000
0.02500000 0.02500000 0.02500000
0.02500000 0.02500000 0.02500000
0.02500000 0.02500000 0.02500000
0.02500000 0.02500000 0.02500000
0.02500000 0.02500000 0.02500000
0.02500000 0.02500000 0.02500000
0.02500000 0.02500000 0.02500000
0.02500000 0.02500000 0.02500000
0.02500000 0.02500000 0.02500000
0.02500000 0.02500000 0.02500000
0.02500000 0.02500000 0.02500000
0.02500000 0.02500000 0.02500000
0.02500000 0.02500000 0.02500000
0.02500000 0.02500000 0.02500000
0.02500000 0.02500000 0.02500000
0.02500000 0.02500000 0.02500000
0.02500000 0.02500000 0.02500000
0.02500000 0.02500000 0.02500000
0.02500000 0.02500000 0.02500000
0.02500000 0.02500000 0.02500000
0.02500000 0.02500000 0.02500000
0.02500000 0.02500000 0.02500000
0.02500000 0.02500000 0.02500000
0.02500000 0.02500000 0.02500000
0.02500000 0.02500000 0.02500000
0.02500000 0.02500000 0.02500000
0.02500000 0.02500000 0.02500000
0.02500000 0.02500000 0.02500000
0.02500000 0.02500000 0.02500000
0.02500000 0.02500000 0.02500000
0.02500000 0.02500000 0.02500000
0.02500000 0.02500000 0.02500000
0.02500000 0.02500000 0.02500000
0.02500000 0.02500000 0.02500000
0.02500000 0.02500000 0.02500000
0.02500000 0.02500000 0.02500000
0.02500000 0.02500000 0.02500000
0.02500000 0.02500000 0.02500000
0.02500000 0.02500000 0.02500000
0.02500000 0.02500000 0.02500000
0.02500000 0.02500000 0.02500000
0.02500000 0.02500000 0.02500000
0.02500000 0.02500000 0.02500000
0.02500000 0.02500000 0.02500000
0.02500000 0.02500000 0.02500000
0.02500000 0.02500000 0.02500000
0.02500000 0.02500000 0.02500000
0.02500000 0.02500000 0.02500000
0.02500000 0.02500000 0.02500000
0.02500000 0.02500000 0.02500000
0.02500000 0.02500000 0.02500000
0.02500000 0.02500000 0.02500000
0.02500000 0.02500000 0.02500000
0.02500000 0.02500000 0.02500000
0.02500000 0.02500000 0.02500000
0.02500000 0.02500000 0.02500000
0.02500000 0.02500000 0.02500000
0.02500000 0.02500000 0.02500000
0.02500000 0.02500000 0.02500000
0.02500000 0.02500000 0.02500000
0.02500000 0.02500000 0.02500000
0.02500000 0.02500000 0.02500000
0.02500000 0.02500000 0.02500000
0.02500000 0.02500000 0.02500000
0.02500000 0.02500000 0.02500000
0.02500000 0.02500000 0.02500000
0.02500000 0.02500000 0.02500000
0.02500000 0.02500000 0.02500000
0.02500000 0.02500000 0.02500000
0.02500000 0.02500000 0.02500000
0.02500000 0.02500000 0.02500000
0.02500000 0.02500000 0.02500000
0.02500000 0.02500000 0.02500000
0.02500000 0.02500000 0.02500000
0.02500000 0.02500000 0.02500000
0.02500000 0.02500000 0.02500000
0.02500000 0.02500000 0.02500000
0.02500000 0.02500000 0.02500000
0.02500000 0.02500000 0.02500000
0.02500000 0.02500000 0.02500000
0.02500000 0.02500000 0.02500000
0.02500000 0.02500000 0.02500000
0.02500000 0.02500000 0.02500000
0.02500000 0.02500000 0.02500000
0.02500000 0.02500000 0.02500000
0.02500000 0.02500000 0.02500000
0.02500000 0.02500000 0.02500000
0.02500000 0.02500000 0.02500000
0.02500000 0.02500000 0.02500000
0.02500000 0.02500000 0.02500000
0.02500000 0.02500000 0.02500000
0.02500000 0.02500000 0.02500000
0.02500000 0.02500000 0.02500000
0.02500000 0.02500000 0.02500000
0.02500000 0.02500000 0.02500000
0.02500000 0.02500000 0.02500000
0.02500000 0.02500000 0.02500000
0.02500000 0.02500000 0.02500000
0.02500000 0.02500000 0.02500000
0.02500000 0.02500000 0.02500000
0.02500000 0.02500000 0.02500000
0.02500000 0.02500000 0.02500000
0.02500000 0.02500000 0.02500000
0.02500000 0.02500000 0.02500000
0.02500000 0.02500000 0.02500000
0.02500000 0.02500000 0.02500000
0.02500000 0.02500000 0.02500000
0.02500000 0.02500000 0.02500000
0.02500000 0.02500000 0.02500000
0.02500000 0.02500000 0.02500000
0.02500000 0.02500000 0.02500000
0.02500000 0.02500000 0.02500000
0.02500000 0.02500000 0.02500000
0.02500000 0.02500000 0.02500000
0.02500000 0.02500000 0.02500000
0.02500000 0.02500000 0.02500000
0.02500000 0.02500000 0.02500000
0.02500000 0.02500000 0.02500000
0.02500000 0.02500000 0.02500000
0.02500000 0.02500000 0.02500000
0.02500000 0.02500000 0.02500000
0.02500000 0.02500000 0.02500000
0.02500000 0.02500000 0.02500000
0.02500000 0.02500000 0.02500000
0.02500000 0.02500000 0.02500000
0.02500000 0.02500000 0.02500000
0.02500000 0.02500000 0.02500000
0.02500000 0.02500000 0.02500000
0.02500000 0.02500000 0.02500000
0.02500000 0.02500000 0.02500000
0.02500000 0.02500000 0.02500000
0.02500000 0.02500000 0.02500000
0.02500000 0.02500000 0.02500000
0.02500000 0.02500000 0.02500000
0.02500000 0.02500000 0.02500000
0.02500000 0.02500000 0.02500000
0.02500000 0.02500000 0.02500000
0.02500000 0.02500000 0.02500000
0.02500000 0.02500000 0.02500000
0.02500000 0.02500000 0.02500000
0.02500000 0.02500000 0.02500000
0.02500000 0.02500000 0.02500000
0.02500000 0.02500000 0.02500000
0.02500000 0.02500000 0.02500000
0.02500000 0.02500000 0.02500000
0.02500000 0.02500000 0.02500000
0.02500000 0.02500000 0.02500000
0.02500000 0.02500000 0.02500000
0.02500000 0.02500000 0.02500000
0.02500000 0.02500000 0.02500000
0.02500000 0.02500000 0.02500000
0.02500000 0.02500000 0.02500000
0.02500000 0.02500000 0.02500000
0.02500000 0.02500000 0.02500000
0.02500000 0.02500000 0.02500000
0.02500000 0.02500000 0.02500000
0.02500000 0.02500000 0.02500000
0.02500000 0.02500000 0.02500000
0.02500000 0.02500000 0.02500000
0.02500000 0.02500000 0.02500000
0.02500000 0.02500000 0.02500000
0.02500000 0.02500000 0.02500000
0.02500000 0.02500000 0.02500000
0.02500000 0.02500000 0.02500000
0.02500000 0.02500000 0.02500000
0.02500000 0.02500000 0.02500000
0.02500000 0.02500000 0.02500000
0.02500000 0.02500000 0.02500000
0.02500000 0.02500000 0.02500000
0.02500000 0.02500000 0.02500000
0.02500000 0.02500000 0.02500000
0.02500000 0.02500000 0.02500000
0.02500000 0.02500000 0.02500000
0.02500000 0.02500000 0.02500000
0.02500000 0.02500000 0.02500000
0.02500000 0.02500000 0.02500000
0.02500000 0.02500000 0.02500000
0.02500000 0.02500000 0.02500000
0.02500000 0.02500000 0.02500000
0.02500000 0.02500000 0.02500000
0.02500000 0.02500000 0.02500000
0.02500000 0.02500000 0.02500000
0.02500000 0.02500000 0.02500000
0.02500000 0.02500000 0.02500000
0.02500000 0.02500000 0.02500000
0.02500000 0.02500000 0.02500000
0.02500000 0.02500000 0.02500000
0.02500000 0.02500000 0.02500000
0.02500000 0.02500000 0.02500000
0.02500000 0.02500000 0.02500000
0.02500000 0.02500000 0.02500000
0.02500000 0.02500000 0.02500000
0.02500000 0.02500000 0.02500000
0.02500000 0.02500000 0.02500000
0.02500000 0.02500000 0.02500000
0.02500000 0.02500000 0.02500000
0.02500000 0.02500000 0.02500000
0.02500000 0.02500000 0.02500000
0.02500000 0.02500000 0.02500000
0.02500000 0.02500000 0.02500000
0.02500000 0.02500000 0.02500000
0.02500000 0.02500000 0.02500000
0.02500000 0.02500000 0.02500000
0.02500000 0.02500000 0.02500000
0.02500000 0.02500000 0.02500000
0.02500000 0.02500000 0.02500000
0.02500000 0.02500000 0.02500000
0.02500000 0.02500000 0.02500000
0.02500000 0.02500000 0.02500000
0.02500000 0.02500000 0.02500000
0.02500000 0.02500000 0.02500000
0.02500000 0.02500000 0.02500000
0.02500000 0.02500000 0.02500000
0.02500000 0.02500000 0.02500000
0.02500000 0.02500000 0.02500000
0.02500000 0.02500000 0.02500000
0.02500000 0.02500000 0.02500000
0.02500000 0.02500000 0.02500000
0.02500000 0.02500000 0.02500000
0.02500000 0.02500000 0.02500000
0.02500000 0.02500000 0.02500000
0.02500000 0.02500000 0.02500000
0.02500000 0.02500000 0.02500000
0.02500000 0.02500000 0.02500000
0.02500000 0.02500000 0.02500000
0.02500000 0.02500000 0.02500000
0.02500000 0.02500000 0.02500000
0.02500000 0.02500000 0.02500000
0.02500000 0.02500000 0.02500000
0.02500000 0.02500000 0.02500000
0.02500000 0.02500000 0.02500000
0.02500000 0.02500000 0.02500000
0.02500000 0.02500000 0.02500000
0.02500000 0.02500000 0.02500000
0.02500000 0.02500000 0.02500000
0.02500000 0.02500000 0.02500000
0.02500000 0.02500000 0.02500000
0.02500000 0.02500000 0.02500000
0.02500000 0.02500000 0.02500000
0.02500000 0.02500000 0.02500000
0.02500000 0.02500000 0.02500000
0.02500000 0.02500000 0.02500000
0.02500000 0.02500000 0.02500000
0.02500000 0.02500000 0.02500000
0.02500000 0.02500000 0.02500000
0.02500000 0.02500000 0.02500000
0.02500000 0.02500000 0.02500000
0.02500000 0.02500000 0.02500000
0.02500000 0.02500000 0.02500000
0.02500000 0.02500000 0.02500000
0.02500000 0.02500000 0.02500000
0.02500000 0.02500000 0.02500000
0.02500000 0.02500000 0.02500000
0.02500000 0.02500000 0.02500000
0.02500000 0.02500000 0.02500000
0.02500000 0.02500000 0.02500000
0.02500000 0.02500000 0.02500000
0.02500000 0.02500000 0.02500000
0.02500000 0.02500000 0.02500000
0.02500000 0.02500000 0.02500000
0.02500000 0.02500000 0.02500000
0.02500000 0.02500000 0.02500000
0.02500000 0.02500000 0.02500000
0.02500000 0.02500000 0.02500000
0.02500000 0.02500000 0.02500000
0.02500000 0.02500000 0.02500000
0.02500000 0.02500000 0.02500000
0.02500000 0.02500000 0.02500000
0.02500000 0.02500000 0.02500000
0.02500000 0.02500000 0.02500000
0.02500000 0.02500000 0.02500000
0.02500000 0.02500000 0.02500000
0.02500000 0.02500000 0.02500000
0.02500000 0.02500000 0.02500000
0.02500000 0.02500000 0.02500000
0.02500000 0.02500000 0.02500000
0.02500000 0.02500000 0.02500000
0.02500000 0.02500000 0.02500000
0.02500000 0.02500000 0.02500000
0.02500000 0.02500000 0.02500000
0.02500000 0.02500000 0.02500000
0.02500000 0.02500000 0.02500000
0.02500000 0.02500000 0.02500000
0.02500000 0.02500000 0.02500000
0.02500000 0.02500000 0.02500000
0.02500000 0.02500000 0.02500000
0.02500000 0.02500000 0.02500000
0.02500000 0.02500000 0.02500000
0.02500000 0.02500000 0.02500000
0.02500000 0.02500000 0.02500000
0.02500000 0.02500000 0.02500000
0.02500000 0.02500000 0.02500000
0.02500000 0.02500000 0.02500000
0.02500000 0.02500000 0.02500000
0.02500000 0.02500000 0.02500000
0.02500000 0.02500000 0.02500000
0.02500000 0.02500000 0.02500000
0.02500000 0.02500000 0.02500000
0.02500000 0.02500000 0.02500000
0.02500000 0.02500000 0.02500000
0.02500000 0.02500000 0.02500000
0.02500000 0.02500000 0.02500000
0.02500000 0.02500000 0.02500000
0.02500000 0.02500000 0.02500000
0.02500000 0.02500000 0.02500000
0.02500000 0.02500000 0.02500000
0.02500000 0.02500000 0.02500000
0.02500000 0.02500000 0.02500000
0.02500000 0.02500000 0.02500000
0.02500000 0.02500000 0.02500000
0.02500000 0.02500000 0.02500000
0.02500000 0.02500000 0.02500000
0.02500000 0.02500000 0.02500000
0.02500000 0.02500000 0.02500000
0.02500000 0.02500000 0.02500000
0.02500000 0.02500000 0.02500000
0.02500000 0.02500000 0.02500000
0.02500000 0.02500000 0.02500000
0.02500000 0.02500000 0.02500000
0.02500000 0.02500000 0.02500000
0.02500000 0.02500000 0.02500000
0.02500000 0.02500000 0.02500000
0.02500000 0.02500000 0.02500000
0.02500000 0.02500000 0.02500000
0.02500000 0.02500000 0.02500000
0.02500000 0.02500000 0.02500000
0.02500000 0.02500000 0.02500000
0.02500000 0.02500000 0.02500000
0.02500000 0.02500000 0.02500000
0.02500000 0.02500000 0.02500000
0.02500000 0.02500000 0.02500000
0.02500000 0.02500000 0.02500000
0.02500000 0.02500000 0.02500000
0.02500000 0.02500000 0.02500000
0.02500000 0.02500000 0.02500000
0.02500000 0.02500000 0.02500000
0.02500000 0.02500000 0.02500000
0.02500000 0.02500000 0.02500000
0.02500000 0.02500000 0.02500000
0.02500000 0.02500000 0.02500000
0.02500000 0.02500000 0.02500000
0.02500000 0.02500000 0.02500000
0.02500000 0.02500000 0.02500000
0.02500000 0.02500000 0.02500000
0.02500000 0.02500000 0.02500000
0.02500000 0.02500000 0.02500000
0.02500000 0.02500000 0.02500000
0.02500000 0.02500000 0.02500000
0.02500000 0.02500000 0.02500000
0.02500000 0.02500000 0.02500000
0.02500000 0.02500000 0.02500000
0.02500000 0.02500000 0.02500000
0.02500000 0.02500000 0.02500000
0.02500000 0.02500000 0.02500000
0.02500000 0.02500000 0.02500000
0.02500000 0.02500000 0.02500000
0.02500000 0.02500000 0.02500000
0.02500000 0.02500000 0.02500000
0.02500000 0.02500000 0.02500000
0.02500000 0.02500000 0.02500000
0.02500000 0.02500000 0.02500000
0.02500000 0.02500000 0.02500000
0.02500000 0.02500000 0.02500000
0.02500000 0.02500000 0.02500000
0.02500000 0.02500000 0.02500000
0.02500000 0.02500000 0.02500000
0.02500000 0.02500000 0.02500000
0.02500000 0.02500000 0.02500000
0.02500000 0.02500000 0.02500000
0.02500000 0.02500000 0.02500000
0.02500000 0.02500000 0.02500000
0.02500000 0.02500000 0.02500000
0.02500000 0.02500000 0.02500000
0.02500000 0.02500000 0.02500000
0.02500000 0.02500000 0.02500000
0.02500000 0.02500000 0.02500000
0.02500000 0.02500000 0.02500000
0.02500000 0.02500000 0.02500000
0.02500000 0.02500000 0.02500000
0.02500000 0.02500000 0.02500000
0.02500000 0.02500000 0.02500000
0.02500000 0.02500000 0.02500000
0.02500000 0.02500000 0.02500000
0.02500000 0.02500000 0.02500000
0.02500000 0.02500000 0.02500000
0.02500000 0.02500000 0.02500000
0.02500000 0.02500000 0.02500000
0.02500000 0.02500000 0.02500000
0.02500000 0.02500000 0.02500000
0.02500000 0.02500000 0.02500000
0.02500000 0.02500000 0.02500000
0.02500000 0.02500000 0.02500000
0.02500000 0.02500000 0.02500000
0.02500000 0.02500000 0.02500000
0.02500000 0.02500000 0.02500000
0.02500000 0.02500000 0.02500000
0.02500000 0.02500000 0.02500000
0.02500000 0.02500000 0.02500000
0.02500000 0.02500000 0.02500000
0.02500000 0.02500000 0.02500000
0.02500000 0.02500000 0.02500000
0.02500000 0.02500000 0.02500000
0.02500000 0.02500000 0.02500000
0.02500000 0.02500000 0.02500000
0.02500000 0.02500000 0.02500000
0.02500000 0.02500000 0.02500000
0.02500000 0.02500000 0.02500000
0.02500000 0.02500000 0.02500000
0.02500000 0.02500000 0.02500000
0.02500000 0.02500000 0.02500000
0.02500000 0.02500000 0.02500000
0.02500000 0.02500000 0.02500000
0.02500000 0.02500000 0.02500000
0.02500000 0.02500000 0.02500000
0.02500000 0.02500000 0.02500000
0.02500000 0.02500000 0.02500000
0.02500000 0.02500000 0.02500000
0.02500000 0.02500000 0.02500000
0.02500000 0.02500000 0.02500000
0.02500000 0.02500000 0.02500000
0.02500000 0.02500000 0.02500000
0.02500000 0.02500000 0.02500000
0.02500000 0.02500000 0.02500000
0.02500000 0.02500000 0.02500000
0.02500000 0.02500000 0.02500000
0.02500000 0.02500000 0.02500000
0.02500000 0.02500000 0.02500000
0.02500000 0.02500000 0.02500000
0.02500000 0.02500000 0.02500000
0.02500000 0.02500000 0.02500000
0.02500000 0.02500000 0.02500000
0.02500000 0.02500000 0.02500000
0.02500000 0.02500000 0.02500000
0.02500000 0.02500000 0.02500000
0.02500000 0.02500000 0.02500000
0.02500000 0.02500000 0.02500000
0.02500000 0.02500000 0.02500000
0.02500000 0.02500000 0.02500000
0.02500000 0.02500000 0.02500000
0.02500000 0.02500000 0.02500000
0.02500000 0.02500000 0.02500000
0.02500000 0.02500000 0.02500000
0.02500000 0.02500000 0.02500000
0.02500000 0.02500000 0.02500000
0.02500000 0.02500000 0.02500000
0.02500000 0.02500000 0.02500000
0.02500000 0.02500000 0.02500000
0.02500000 0.02500000 0.02500000
0.02500000 0.02500000 0.02500000
0.02500000 0.02500000 0.02500000
0.02500000 0.02500000 0.02500000
0.02500000 0.02500000 0.02500000
0.02500000 0.02500000 0.02500000
0.02500000 0.02500000 0.02500000
0.02500000 0.02500000 0.02500000
0.02500000 0.02500000 0.02500000
0.02500000 0.02500000 0.02500000
0.02500000 0.02500000 0.02500000
0.02500000 0.02500000 0.02500000
0.02500000 0.02500000 0.02500000
0.02500000 0.02500000 0.02500000
0.02500000 0.02500000 0.02500000
0.02500000 0.02500000 0.02500000
0.02500000 0.02500000 0.02500000
0.02500000 0.02500000 0.02500000
0.02500000 0.02500000 0.02500000
0.02500000 0.02500000 0.02500000
0.02500000 0.02500000 0.02500000
0.02500000 0.02500000 0.02500000
0.02500000 0.02500000 0.02500000
0.02500000 0.02500000 0.02500000
0.02500000 0.02500000 0.02500000
0.02500000 0.02500000 0.02500000
0.02500000 0.02500000 0.02500000
0.02500000 0.02500000 0.02500000
0.02500000 0.02500000 0.02500000
0.02500000 0.02500000 0.02500000
0.02500000 0.02500000 0.02500000
0.02500000 0.02500000 0.02500000
